Newaita-dark/apps/22/itch.svg

<svg height="22" viewBox="0 0 22 22" width="22" xmlns="http://www.w3.org/2000/svg" xmlns:xlink="http://www.w3.org/1999/xlink"><linearGradient id="a" gradientTransform="matrix(.0400728 0 0 .0429729 .683588 9.239165)" gradientUnits="userSpaceOnUse" x1="254" x2="254" y1="233.5" y2="254.666672"><stop offset="0" stop-opacity=".27451"/><stop offset="1" stop-opacity="0"/></linearGradient><linearGradient id="b"><stop offset="0" stop-opacity=".313726"/><stop offset=".222222" stop-opacity=".27451"/><stop offset="1" stop-opacity="0"/></linearGradient><radialGradient id="c" cx="450.908936" cy="189.579361" gradientTransform="matrix(.00000011 -.0537161 -.0901639 -.00000007 34.740928 43.721791)" gradientUnits="userSpaceOnUse" r="21.166656" xlink:href="#b"/><radialGradient id="d" cx="450.908936" cy="189.579361" gradientTransform="matrix(-.00000011 .0537161 .0901639 .00000007 -12.910719 -5.175142)" gradientUnits="userSpaceOnUse" r="21.166656" xlink:href="#b"/><radialGradient id="e" cx="450.908936" cy="189.579361" gradientTransform="matrix(-.00000011 -.0537161 .0901639 -.00000007 -12.910719 43.721791)" gradientUnits="userSpaceOnUse" r="21.166656" xlink:href="#b"/><radialGradient id="f" cx="450.908936" cy="189.579361" gradientTransform="matrix(.00000011 .0537161 -.0901639 .00000007 34.740927 -5.175142)" gradientUnits="userSpaceOnUse" r="21.166656" xlink:href="#b"/><linearGradient id="g" gradientUnits="userSpaceOnUse" x1="10.9151166" x2="10.9151166" y1="19.27333515" y2="1.99106697081"><stop offset="0" stop-color="#f44336"/><stop offset="1" stop-color="#ef5350"/></linearGradient><linearGradient id="h" gradientUnits="userSpaceOnUse" x1="10.919524" x2="10.919524" y1="19.04593591584" y2="1.76368791584"><stop offset="0" stop-color="#bdbdbd"/><stop offset="1" stop-color="#e0e0e0"/></linearGradient><path d="m3.96875 19.273438h13.890625v.910156h-13.890625zm0 0" fill="url(#a)"/><path d="m17.859375 19.273438h1.695313v-.910157h-1.695313zm0 0" fill="url(#c)"/><path d="m3.96875 19.273438h-1.695312v.910156h1.695312zm0 0" fill="url(#d)"/><path d="m3.96875 19.273438h-1.695312v-.910157h1.695312zm0 0" fill="url(#e)"/><path d="m17.859375 19.273438h1.695313v.910156h-1.695313zm0 0" fill="url(#f)"/><path d="m3.183594 1.992188h15.464844c.5 0 .90625.40625.90625.910156v15.460937c0 .503907-.40625.910157-.90625.910157h-15.464844c-.503906 0-.910156-.40625-.910156-.910157v-15.460937c0-.503906.40625-.910156.910156-.910156zm0 0" fill="url(#g)"/><path d="m3.183594 1.992188c-.503906 0-.910156.40625-.910156.910156v.226562c0-.503906.40625-.90625.910156-.90625h15.464844c.503906 0 .90625.402344.90625.90625v-.226562c0-.503906-.402344-.910156-.90625-.910156zm0 0" fill="#fff" fill-opacity=".392157"/><path d="m3.183594 19.273438c-.503906 0-.910156-.40625-.910156-.910157v-.339843c0 .503906.40625.910156.910156.910156h15.464844c.503906 0 .90625-.40625.90625-.910156v.339843c0 .503907-.402344.910157-.90625.910157zm0 0" fill-opacity=".235294"/><path d="m74.083834-168.640791h359.874725c11.635253 0 21.088895 9.453643 21.088895 21.179796v359.783824c0 11.726153-9.453642 21.179796-21.088895 21.179796h-359.874725c-11.726152 0-21.179795-9.453643-21.179795-21.179796v-359.783824c0-11.726153 9.453643-21.179796 21.179795-21.179796zm0 0" fill="none" stroke="#212121" stroke-linecap="round" stroke-linejoin="round" stroke-width="3" transform="matrix(.0429729 0 0 .0429729 0 9.239163)"/><path d="m8.191406 6.992188c-1.261718 0-2.273437 1.015624-2.273437 2.277343 0 .511719.167969.984375.453125 1.367188v.496093c0 1.511719.476562 2.726563 1.070312 2.726563h.132813c.546875 0 .992187-1.023437 1.0625-2.359375.230469-.046875.453125-.128906.652343-.238281.039063.507812 1.175782.507812 1.175782-.175781h.910156c0 .683593 1.136719.683593 1.175781.175781.199219.109375.417969.191406.652344.238281.070313 1.335938.515625 2.359375 1.0625 2.359375h.132813c.589843 0 1.070312-1.214844 1.070312-2.726563v-.496093c.285156-.382813.453125-.855469.453125-1.367188 0-1.261719-1.015625-2.277343-2.273437-2.277343-.746094 0-1.40625.359374-1.820313.910156h-1.816406c-.414063-.550782-1.074219-.910156-1.820313-.910156zm2.5 1.480468h.457032c.125 0 .226562.101563.226562.226563v.683593h.453125l-.910156 1.136719-.90625-1.136719h.453125v-.683593c0-.125.101562-.226563.226562-.226563zm0 0" fill="url(#h)"/><path d="m8.191406 6.992188c-1.261718 0-2.273437 1.015624-2.273437 2.277343 0 .046875 0 .09375.003906.140625.070313-1.191406 1.054687-2.132812 2.269531-2.132812.746094 0 1.40625.355468 1.820313.910156h1.816406c.414063-.554688 1.074219-.910156 1.820313-.910156 1.210937 0 2.195312.941406 2.269531 2.132812.003906-.046875.003906-.09375.003906-.140625 0-1.261719-1.015625-2.277343-2.273437-2.277343-.746094 0-1.40625.359374-1.820313.910156h-1.816406c-.414063-.550782-1.074219-.910156-1.820313-.910156zm1.820313 2.671874.90625 1.140626.910156-1.140626h-.226563l-.683593.855469-.679688-.855469zm0 0" fill="#f7f7f7"/><path d="m10.691406 8.46875c-.125 0-.226562.101562-.226562.226562v.503907c0-.128907.101562-.230469.226562-.230469h.457032c.125 0 .226562.101562.226562.230469v-.503907c0-.125-.101562-.226562-.226562-.226562zm-.679687.910156.398437.5h.054688v-.5zm1.363281 0v.5h.054688l.398437-.5zm-5.445312.136719c-.007813.082031-.011719.164063-.011719.25 0 .515625.167969.988281.453125 1.367187v.496094c0 1.511719.476562 2.730469 1.070312 2.730469h.132813c.546875 0 .992187-1.027344 1.0625-2.363281.230469-.046875.453125-.125.652343-.238282.039063.507813 1.175782.507813 1.175782-.171874h.910156c0 .679687 1.136719.679687 1.175781.171874.199219.113282.417969.191407.652344.238282.070313 1.335937.515625 2.363281 1.0625 2.363281h.132813c.589843 0 1.070312-1.21875 1.070312-2.730469v-.496094c.285156-.378906.453125-.851562.453125-1.367187 0-.085937-.003906-.167969-.011719-.25-.046875.417969-.203125.800781-.441406 1.117187v.496094c0 1.511719-.480469 2.730469-1.070312 2.730469h-.132813c-.546875 0-.992187-1.027344-1.0625-2.363281-.234375-.046875-.453125-.128906-.652344-.238282-.039062.507813-1.175781.507813-1.175781-.175781h-.910156c0 .683594-1.136719.683594-1.175782.175781-.199218.109376-.421874.191407-.652343.238282-.070313 1.335937-.515625 2.363281-1.0625 2.363281h-.132813c-.59375 0-1.070312-1.21875-1.070312-2.730469v-.496094c-.238282-.316406-.394532-.699218-.441406-1.117187zm0 0" fill-opacity=".235294"/><path d="m190.515312-46.996842c-29.360832 0-52.904039 23.634107-52.904039 52.99494 0 11.907953 3.908718 22.906903 10.544448 31.815143v11.544352c0 35.178459 11.08985 63.448487 24.906713 63.448487h3.090613c12.726058 0 23.088705-23.815908 24.724912-54.903848 5.363124-1.090805 10.544448-2.999714 15.180369-5.544925.909004 11.817053 27.361023 11.817053 27.361023-4.090519h21.179796c0 15.907572 26.452019 15.907572 27.361023 4.090519 4.635921 2.545211 9.726344 4.45412 15.180369 5.544925 1.636207 31.08794 11.998854 54.903848 24.724911 54.903848h3.090614c13.725962 0 24.906713-28.270028 24.906713-63.448487v-11.544352c6.63573-8.90824 10.544447-19.90719 10.544447-31.815143 0-29.360833-23.634106-52.99494-52.904038-52.99494-17.361979 0-32.724148 8.362838-42.359592 21.179796h-42.26869c-9.635444-12.816958-24.997613-21.179796-42.359592-21.179796zm58.176263 34.451256h10.635348c2.908813 0 5.272224 2.363411 5.272224 5.272224v15.907571h10.544447l-21.179795 26.45202-21.088895-26.45202h10.544447v-15.907571c0-2.908813 2.363411-5.272224 5.272224-5.272224zm0 0" fill="none" stroke="#212121" stroke-linecap="round" stroke-linejoin="round" stroke-width="3" transform="matrix(.0429729 0 0 .0429729 .00442 9.011776)"/></svg>

<?xml version="1.0" encoding="UTF-8"?>
<svg xmlns="http://www.w3.org/2000/svg" xmlns:xlink="http://www.w3.org/1999/xlink" width="22px" height="22px" viewBox="0 0 22 22" version="1.1">
<defs>
<linearGradient id="linear0" gradientUnits="userSpaceOnUse" x1="254" y1="233.5" x2="254" y2="254.666672" gradientTransform="matrix(0.0400728,0,0,0.0429729,0.683588,9.239165)">
<stop offset="0" style="stop-color:rgb(0%,0%,0%);stop-opacity:0.27451;"/>
<stop offset="1" style="stop-color:rgb(0%,0%,0%);stop-opacity:0;"/>
</linearGradient>
<radialGradient id="radial0" gradientUnits="userSpaceOnUse" cx="450.908936" cy="189.579361" fx="450.908936" fy="189.579361" r="21.166656" gradientTransform="matrix(0.000000111661,-0.0537161,-0.0901639,-0.0000000698078,34.740928,43.721791)">
<stop offset="0" style="stop-color:rgb(0%,0%,0%);stop-opacity:0.313726;"/>
<stop offset="0.222222" style="stop-color:rgb(0%,0%,0%);stop-opacity:0.27451;"/>
<stop offset="1" style="stop-color:rgb(0%,0%,0%);stop-opacity:0;"/>
</radialGradient>
<radialGradient id="radial1" gradientUnits="userSpaceOnUse" cx="450.908936" cy="189.579361" fx="450.908936" fy="189.579361" r="21.166656" gradientTransform="matrix(-0.000000111661,0.0537161,0.0901639,0.0000000698078,-12.910719,-5.175142)">
<stop offset="0" style="stop-color:rgb(0%,0%,0%);stop-opacity:0.313726;"/>
<stop offset="0.222222" style="stop-color:rgb(0%,0%,0%);stop-opacity:0.27451;"/>
<stop offset="1" style="stop-color:rgb(0%,0%,0%);stop-opacity:0;"/>
</radialGradient>
<radialGradient id="radial2" gradientUnits="userSpaceOnUse" cx="450.908936" cy="189.579361" fx="450.908936" fy="189.579361" r="21.166656" gradientTransform="matrix(-0.000000111661,-0.0537161,0.0901639,-0.0000000698078,-12.910719,43.721791)">
<stop offset="0" style="stop-color:rgb(0%,0%,0%);stop-opacity:0.313726;"/>
<stop offset="0.222222" style="stop-color:rgb(0%,0%,0%);stop-opacity:0.27451;"/>
<stop offset="1" style="stop-color:rgb(0%,0%,0%);stop-opacity:0;"/>
</radialGradient>
<radialGradient id="radial3" gradientUnits="userSpaceOnUse" cx="450.908936" cy="189.579361" fx="450.908936" fy="189.579361" r="21.166656" gradientTransform="matrix(0.000000111661,0.0537161,-0.0901639,0.0000000698078,34.740927,-5.175142)">
<stop offset="0" style="stop-color:rgb(0%,0%,0%);stop-opacity:0.313726;"/>
<stop offset="0.222222" style="stop-color:rgb(0%,0%,0%);stop-opacity:0.27451;"/>
<stop offset="1" style="stop-color:rgb(0%,0%,0%);stop-opacity:0;"/>
</radialGradient>
<linearGradient id="linear1" gradientUnits="userSpaceOnUse" x1="254" y1="233.5" x2="254" y2="-168.666672" gradientTransform="matrix(0.0429729,0,0,0.0429729,0,9.239163)">
<stop offset="0" style="stop-color:rgb(95.686275%,26.274511%,21.176471%);stop-opacity:1;"/>
<stop offset="1" style="stop-color:rgb(93.725491%,32.549021%,31.37255%);stop-opacity:1;"/>
</linearGradient>
<linearGradient id="linear2" gradientUnits="userSpaceOnUse" x1="960" y1="1715.117188" x2="960" y2="195.117188" gradientTransform="matrix(0.0113699,0,0,0.0113699,0.00441968,-0.454775)">
<stop offset="0" style="stop-color:rgb(74.117649%,74.117649%,74.117649%);stop-opacity:1;"/>
<stop offset="1" style="stop-color:rgb(87.843138%,87.843138%,87.843138%);stop-opacity:1;"/>
</linearGradient>
</defs>
<g id="surface1">
<path style=" stroke:none;fill-rule:nonzero;fill:url(#linear0);" d="M 3.96875 19.273438 L 17.859375 19.273438 L 17.859375 20.183594 L 3.96875 20.183594 Z M 3.96875 19.273438 "/>
<path style=" stroke:none;fill-rule:nonzero;fill:url(#radial0);" d="M 17.859375 19.273438 L 19.554688 19.273438 L 19.554688 18.363281 L 17.859375 18.363281 Z M 17.859375 19.273438 "/>
<path style=" stroke:none;fill-rule:nonzero;fill:url(#radial1);" d="M 3.96875 19.273438 L 2.273438 19.273438 L 2.273438 20.183594 L 3.96875 20.183594 Z M 3.96875 19.273438 "/>
<path style=" stroke:none;fill-rule:nonzero;fill:url(#radial2);" d="M 3.96875 19.273438 L 2.273438 19.273438 L 2.273438 18.363281 L 3.96875 18.363281 Z M 3.96875 19.273438 "/>
<path style=" stroke:none;fill-rule:nonzero;fill:url(#radial3);" d="M 17.859375 19.273438 L 19.554688 19.273438 L 19.554688 20.183594 L 17.859375 20.183594 Z M 17.859375 19.273438 "/>
<path style=" stroke:none;fill-rule:nonzero;fill:url(#linear1);" d="M 3.183594 1.992188 L 18.648438 1.992188 C 19.148438 1.992188 19.554688 2.398438 19.554688 2.902344 L 19.554688 18.363281 C 19.554688 18.867188 19.148438 19.273438 18.648438 19.273438 L 3.183594 19.273438 C 2.679688 19.273438 2.273438 18.867188 2.273438 18.363281 L 2.273438 2.902344 C 2.273438 2.398438 2.679688 1.992188 3.183594 1.992188 Z M 3.183594 1.992188 "/>
<path style=" stroke:none;fill-rule:nonzero;fill:rgb(100%,100%,100%);fill-opacity:0.392157;" d="M 3.183594 1.992188 C 2.679688 1.992188 2.273438 2.398438 2.273438 2.902344 L 2.273438 3.128906 C 2.273438 2.625 2.679688 2.222656 3.183594 2.222656 L 18.648438 2.222656 C 19.152344 2.222656 19.554688 2.625 19.554688 3.128906 L 19.554688 2.902344 C 19.554688 2.398438 19.152344 1.992188 18.648438 1.992188 Z M 3.183594 1.992188 "/>
<path style=" stroke:none;fill-rule:nonzero;fill:rgb(0%,0%,0%);fill-opacity:0.235294;" d="M 3.183594 19.273438 C 2.679688 19.273438 2.273438 18.867188 2.273438 18.363281 L 2.273438 18.023438 C 2.273438 18.527344 2.679688 18.933594 3.183594 18.933594 L 18.648438 18.933594 C 19.152344 18.933594 19.554688 18.527344 19.554688 18.023438 L 19.554688 18.363281 C 19.554688 18.867188 19.152344 19.273438 18.648438 19.273438 Z M 3.183594 19.273438 "/>
<path style="fill:none;stroke-width:3;stroke-linecap:round;stroke-linejoin:round;stroke:rgb(12.941177%,12.941177%,12.941177%);stroke-opacity:1;stroke-miterlimit:4;" d="M 74.083834 -168.640791 L 433.958559 -168.640791 C 445.593812 -168.640791 455.047454 -159.187148 455.047454 -147.460995 L 455.047454 212.322829 C 455.047454 224.048982 445.593812 233.502625 433.958559 233.502625 L 74.083834 233.502625 C 62.357682 233.502625 52.904039 224.048982 52.904039 212.322829 L 52.904039 -147.460995 C 52.904039 -159.187148 62.357682 -168.640791 74.083834 -168.640791 Z M 74.083834 -168.640791 " transform="matrix(0.0429729,0,0,0.0429729,0,9.239163)"/>
<path style=" stroke:none;fill-rule:nonzero;fill:url(#linear2);" d="M 8.191406 6.992188 C 6.929688 6.992188 5.917969 8.007812 5.917969 9.269531 C 5.917969 9.78125 6.085938 10.253906 6.371094 10.636719 L 6.371094 11.132812 C 6.371094 12.644531 6.847656 13.859375 7.441406 13.859375 L 7.574219 13.859375 C 8.121094 13.859375 8.566406 12.835938 8.636719 11.5 C 8.867188 11.453125 9.089844 11.371094 9.289062 11.261719 C 9.328125 11.769531 10.464844 11.769531 10.464844 11.085938 L 11.375 11.085938 C 11.375 11.769531 12.511719 11.769531 12.550781 11.261719 C 12.75 11.371094 12.96875 11.453125 13.203125 11.5 C 13.273438 12.835938 13.71875 13.859375 14.265625 13.859375 L 14.398438 13.859375 C 14.988281 13.859375 15.46875 12.644531 15.46875 11.132812 L 15.46875 10.636719 C 15.753906 10.253906 15.921875 9.78125 15.921875 9.269531 C 15.921875 8.007812 14.90625 6.992188 13.648438 6.992188 C 12.902344 6.992188 12.242188 7.351562 11.828125 7.902344 L 10.011719 7.902344 C 9.597656 7.351562 8.9375 6.992188 8.191406 6.992188 Z M 10.691406 8.472656 L 11.148438 8.472656 C 11.273438 8.472656 11.375 8.574219 11.375 8.699219 L 11.375 9.382812 L 11.828125 9.382812 L 10.917969 10.519531 L 10.011719 9.382812 L 10.464844 9.382812 L 10.464844 8.699219 C 10.464844 8.574219 10.566406 8.472656 10.691406 8.472656 Z M 10.691406 8.472656 "/>
<path style=" stroke:none;fill-rule:nonzero;fill:rgb(96.862745%,96.862745%,96.862745%);fill-opacity:1;" d="M 8.191406 6.992188 C 6.929688 6.992188 5.917969 8.007812 5.917969 9.269531 C 5.917969 9.316406 5.917969 9.363281 5.921875 9.410156 C 5.992188 8.21875 6.976562 7.277344 8.191406 7.277344 C 8.9375 7.277344 9.597656 7.632812 10.011719 8.1875 L 11.828125 8.1875 C 12.242188 7.632812 12.902344 7.277344 13.648438 7.277344 C 14.859375 7.277344 15.84375 8.21875 15.917969 9.410156 C 15.921875 9.363281 15.921875 9.316406 15.921875 9.269531 C 15.921875 8.007812 14.90625 6.992188 13.648438 6.992188 C 12.902344 6.992188 12.242188 7.351562 11.828125 7.902344 L 10.011719 7.902344 C 9.597656 7.351562 8.9375 6.992188 8.191406 6.992188 Z M 10.011719 9.664062 L 10.917969 10.804688 L 11.828125 9.664062 L 11.601562 9.664062 L 10.917969 10.519531 L 10.238281 9.664062 Z M 10.011719 9.664062 "/>
<path style=" stroke:none;fill-rule:nonzero;fill:rgb(0%,0%,0%);fill-opacity:0.235294;" d="M 10.691406 8.46875 C 10.566406 8.46875 10.464844 8.570312 10.464844 8.695312 L 10.464844 9.199219 C 10.464844 9.070312 10.566406 8.96875 10.691406 8.96875 L 11.148438 8.96875 C 11.273438 8.96875 11.375 9.070312 11.375 9.199219 L 11.375 8.695312 C 11.375 8.570312 11.273438 8.46875 11.148438 8.46875 Z M 10.011719 9.378906 L 10.410156 9.878906 L 10.464844 9.878906 L 10.464844 9.378906 Z M 11.375 9.378906 L 11.375 9.878906 L 11.429688 9.878906 L 11.828125 9.378906 Z M 5.929688 9.515625 C 5.921875 9.597656 5.917969 9.679688 5.917969 9.765625 C 5.917969 10.28125 6.085938 10.753906 6.371094 11.132812 L 6.371094 11.628906 C 6.371094 13.140625 6.847656 14.359375 7.441406 14.359375 L 7.574219 14.359375 C 8.121094 14.359375 8.566406 13.332031 8.636719 11.996094 C 8.867188 11.949219 9.089844 11.871094 9.289062 11.757812 C 9.328125 12.265625 10.464844 12.265625 10.464844 11.585938 L 11.375 11.585938 C 11.375 12.265625 12.511719 12.265625 12.550781 11.757812 C 12.75 11.871094 12.96875 11.949219 13.203125 11.996094 C 13.273438 13.332031 13.71875 14.359375 14.265625 14.359375 L 14.398438 14.359375 C 14.988281 14.359375 15.46875 13.140625 15.46875 11.628906 L 15.46875 11.132812 C 15.753906 10.753906 15.921875 10.28125 15.921875 9.765625 C 15.921875 9.679688 15.917969 9.597656 15.910156 9.515625 C 15.863281 9.933594 15.707031 10.316406 15.46875 10.632812 L 15.46875 11.128906 C 15.46875 12.640625 14.988281 13.859375 14.398438 13.859375 L 14.265625 13.859375 C 13.71875 13.859375 13.273438 12.832031 13.203125 11.496094 C 12.96875 11.449219 12.75 11.367188 12.550781 11.257812 C 12.511719 11.765625 11.375 11.765625 11.375 11.082031 L 10.464844 11.082031 C 10.464844 11.765625 9.328125 11.765625 9.289062 11.257812 C 9.089844 11.367188 8.867188 11.449219 8.636719 11.496094 C 8.566406 12.832031 8.121094 13.859375 7.574219 13.859375 L 7.441406 13.859375 C 6.847656 13.859375 6.371094 12.640625 6.371094 11.128906 L 6.371094 10.632812 C 6.132812 10.316406 5.976562 9.933594 5.929688 9.515625 Z M 5.929688 9.515625 "/>
<path style="fill:none;stroke-width:3;stroke-linecap:round;stroke-linejoin:round;stroke:rgb(12.941177%,12.941177%,12.941177%);stroke-opacity:1;stroke-miterlimit:4;" d="M 190.515312 -46.996842 C 161.15448 -46.996842 137.611273 -23.362735 137.611273 5.998098 C 137.611273 17.906051 141.519991 28.905001 148.155721 37.813241 L 148.155721 49.357593 C 148.155721 84.536052 159.245571 112.80608 173.062434 112.80608 L 176.153047 112.80608 C 188.879105 112.80608 199.241752 88.990172 200.877959 57.902232 C 206.241083 56.811427 211.422407 54.902518 216.058328 52.357307 C 216.967332 64.17436 243.419351 64.17436 243.419351 48.266788 L 264.599147 48.266788 C 264.599147 64.17436 291.051166 64.17436 291.96017 52.357307 C 296.596091 54.902518 301.686514 56.811427 307.140539 57.902232 C 308.776746 88.990172 319.139393 112.80608 331.86545 112.80608 L 334.956064 112.80608 C 348.682026 112.80608 359.862777 84.536052 359.862777 49.357593 L 359.862777 37.813241 C 366.498507 28.905001 370.407224 17.906051 370.407224 5.998098 C 370.407224 -23.362735 346.773118 -46.996842 317.503186 -46.996842 C 300.141207 -46.996842 284.779038 -38.634004 275.143594 -25.817046 L 232.874904 -25.817046 C 223.23946 -38.634004 207.877291 -46.996842 190.515312 -46.996842 Z M 248.691575 -12.545586 L 259.326923 -12.545586 C 262.235736 -12.545586 264.599147 -10.182175 264.599147 -7.273362 L 264.599147 8.634209 L 275.143594 8.634209 L 253.963799 35.086229 L 232.874904 8.634209 L 243.419351 8.634209 L 243.419351 -7.273362 C 243.419351 -10.182175 245.782762 -12.545586 248.691575 -12.545586 Z M 248.691575 -12.545586 " transform="matrix(0.0429729,0,0,0.0429729,0.00441968,9.011776)"/>
</g>
</svg>
